src/icons/semantic-release.svg

<svg viewBox="0 0 300 300" xmlns="http://www.w3.org/2000/svg">
  <path
    d="M93.6567 252.93C62.7277 234.984 36.3537 219.274 35.0487 218.02C32.8517 215.909 32.6767 210.852 32.6967 150.008C32.7067 113.856 33.1657 83.595 33.7137 82.76C34.5537 81.482 148.644 14.44 149.974 14.44C151.309 14.44 265.394 81.482 266.234 82.76C267.931 85.344 267.487 215.28 265.773 217.34C264.595 218.76 215.751 247.54 155.353 282.403L149.887 285.558L93.6567 252.93ZM168.536 264.459C178.464 258.77 187.656 252.905 188.961 251.426C194.128 245.571 191.181 228.998 181.04 206.873C177.606 199.382 175.15 192.899 175.582 192.467C177.748 190.302 205.582 213.812 211.296 222.633C220.091 236.209 217.238 235.906 235.922 225.243C245.01 220.058 253.645 214.723 255.113 213.389C257.553 211.169 257.781 209.117 257.781 189.372C257.781 164.728 258.163 165.632 244.935 158.939C237.604 155.229 217.859 151.486 205.315 151.429C202.188 151.414 199.27 150.818 198.829 150.103C197.811 148.457 202.179 146.239 219.134 139.789C229.819 135.725 235.282 134.469 244.899 133.863L257.103 133.095V87.052L240.177 77.189C230.867 71.764 222.099 67.326 220.692 67.326C216.105 67.326 202.296 76.863 196.409 84.096C193.245 87.984 187.91 95.24 184.554 100.221C181.197 105.203 177.906 109.297 177.24 109.321C175.541 109.381 177.295 92.466 180.522 77.667C182.198 69.979 184.757 62.819 187.277 58.761C189.508 55.169 191.334 51.441 191.334 50.478C191.334 48.904 152.524 25.289 149.938 25.289C148.135 25.289 111.678 46.964 109.922 49.079C108.808 50.422 108.466 54.679 108.866 62.246C109.386 72.091 110.31 75.376 116.594 89.702C120.52 98.652 124.057 106.737 124.454 107.67C126.06 111.432 121.614 108.841 108.853 98.576C93.4927 86.221 88.9627 81.409 84.2087 72.395C82.3457 68.862 80.2087 66.019 79.4627 66.077C78.7157 66.134 70.1707 70.883 60.4757 76.629L42.8457 87.077V134.425L50.2857 138.87C60.0657 144.714 64.1517 145.787 83.5277 147.595C92.4777 148.43 100.328 149.577 100.973 150.143C102.479 151.464 97.6387 153.903 80.8147 160.303C70.1297 164.367 64.6667 165.623 55.0497 166.229L42.8457 166.998L42.4737 188.95C42.0337 214.878 40.0987 211.59 63.7557 225.089L80.0077 234.362L87.1517 230.512C96.1717 225.653 102.737 218.941 113.134 203.95C117.66 197.424 121.851 192.085 122.448 192.085C124.128 192.085 123.76 197.24 120.834 214.664C118.804 226.756 116.954 233.064 113.36 240.16C109.314 248.145 108.867 249.872 110.442 251.447C112.368 253.373 147.902 274.493 149.552 274.692C150.065 274.754 158.608 270.15 168.537 264.461L168.536 264.459ZM140.482 175.146C133.087 172.553 125.424 163.736 123.752 155.896C119.158 134.356 141.098 116.364 160.823 125.496C178.119 133.504 182.253 154.738 169.163 168.328C161.057 176.744 151.511 179.014 140.482 175.146ZM156.522 167.181C158.957 166.164 162.599 163.371 164.615 160.975C171.689 152.568 168.341 138.041 158.223 133.24C145.255 127.086 131.667 135.887 131.667 150.44C131.667 157.547 136.161 164.089 143.126 167.123C148.45 169.442 151.083 169.453 156.522 167.181Z"
    fill="#F5F5F5"
  />
</svg>

<svg viewBox="0 0 300 300" xmlns="http://www.w3.org/2000/svg"><path d="M93.656 252.93c-30.929-17.946-57.303-33.656-58.608-34.91-2.197-2.111-2.372-7.168-2.352-68.012.01-36.152.469-66.413 1.017-67.248.84-1.278 114.93-68.32 116.26-68.32 1.335 0 115.42 67.042 116.26 68.32 1.697 2.584 1.253 132.52-.461 134.58-1.178 1.42-50.022 30.2-110.42 65.063l-5.466 3.155zm74.879 11.529c9.928-5.689 19.12-11.554 20.425-13.033 5.167-5.855 2.22-22.428-7.921-44.553-3.434-7.491-5.89-13.974-5.458-14.406 2.166-2.165 30 21.345 35.714 30.166 8.795 13.576 5.942 13.273 24.626 2.61 9.088-5.185 17.723-10.52 19.191-11.854 2.44-2.22 2.668-4.272 2.668-24.017 0-24.644.382-23.74-12.846-30.433-7.331-3.71-27.076-7.453-39.62-7.51-3.127-.015-6.045-.611-6.486-1.326-1.018-1.646 3.35-3.864 20.305-10.314 10.685-4.064 16.148-5.32 25.765-5.926l12.204-.768V87.052l-16.926-9.863c-9.31-5.425-18.078-9.863-19.485-9.863-4.587 0-18.396 9.537-24.283 16.77-3.164 3.888-8.499 11.144-11.855 16.125-3.357 4.982-6.648 9.076-7.314 9.1-1.699.06.055-16.855 3.282-31.654 1.676-7.688 4.235-14.848 6.755-18.906 2.231-3.592 4.057-7.32 4.057-8.283 0-1.574-38.81-25.189-41.396-25.189-1.803 0-38.26 21.675-40.016 23.79-1.114 1.343-1.456 5.6-1.056 13.167.52 9.845 1.444 13.13 7.728 27.456 3.926 8.95 7.463 17.035 7.86 17.968 1.606 3.762-2.84 1.171-15.601-9.094-15.36-12.355-19.89-17.167-24.644-26.181-1.863-3.533-4-6.376-4.746-6.318-.747.057-9.292 4.806-18.987 10.552l-17.63 10.448v47.348l7.44 4.445c9.78 5.844 13.866 6.917 33.242 8.725 8.95.835 16.8 1.982 17.445 2.548 1.506 1.321-3.334 3.76-20.158 10.16-10.685 4.064-16.148 5.32-25.765 5.926l-12.204.769-.372 21.952c-.44 25.928-2.375 22.64 21.282 36.139l16.252 9.273 7.144-3.85c9.02-4.859 15.585-11.571 25.982-26.562 4.526-6.526 8.717-11.865 9.314-11.865 1.68 0 1.312 5.155-1.614 22.579-2.03 12.092-3.88 18.4-7.474 25.496-4.046 7.985-4.493 9.712-2.918 11.287 1.926 1.926 37.46 23.046 39.11 23.245.513.062 9.056-4.542 18.985-10.231zm-28.054-89.313c-7.395-2.593-15.058-11.41-16.73-19.25-4.594-21.54 17.346-39.532 37.071-30.4 17.296 8.008 21.43 29.242 8.34 42.832-8.106 8.416-17.651 10.686-28.68 6.818zm16.04-7.965c2.435-1.017 6.077-3.81 8.093-6.206 7.074-8.407 3.726-22.934-6.392-27.735-12.968-6.154-26.556 2.647-26.556 17.2 0 7.107 4.494 13.649 11.459 16.683 5.324 2.319 7.957 2.33 13.396.058z" style="fill:#f5f5f5;stroke-width:1.3561"/></svg>
